icon/pk/face-recognition.svg

<svg viewBox="0 0 48 48" fill="none" xmlns="http://www.w3.org/2000/svg" height="1em" width="1em">
  <path d="M33 4.99976H41C42.1046 4.99976 43 5.89519 43 6.99976V14.9998M43 32.9998V40.9998C43 42.1043 42.1046 42.9998 41 42.9998H33M15 42.9998H7C5.89543 42.9998 5 42.1043 5 40.9998V32.9998M5 14.9998V6.99976C5 5.89519 5.89543 4.99976 7 4.99976H15" stroke="black" stroke-width="4" stroke-linecap="round" stroke-linejoin="round"/>
  <path d="M24 38C30.6274 38 36 31.732 36 24C36 16.268 30.6274 10 24 10C17.3726 10 12 16.268 12 24C12 31.732 17.3726 38 24 38Z" stroke="black" stroke-width="4"/>
  <path d="M6 24H42" stroke="black" stroke-width="4" stroke-linecap="round"/>
  <path d="M20.0693 30.1057C21.3372 31.0429 22.6473 31.5115 23.9996 31.5115C25.3519 31.5115 26.698 31.0429 28.0378 30.1057" stroke="black" stroke-width="4" stroke-linecap="round"/>
</svg>

<svg width="48" height="48" fill="none" xmlns="http://www.w3.org/2000/svg"><path d="M33 5h8a2 2 0 0 1 2 2v8m0 18v8a2 2 0 0 1-2 2h-8m-18 0H7a2 2 0 0 1-2-2v-8m0-18V7a2 2 0 0 1 2-2h8" stroke="#000" stroke-width="4" stroke-linecap="round" stroke-linejoin="round"/><path d="M24 38c6.627 0 12-6.268 12-14s-5.373-14-12-14-12 6.268-12 14 5.373 14 12 14Z" stroke="#000" stroke-width="4"/><path d="M6 24h36M20.07 30.106c1.267.937 2.577 1.405 3.93 1.405 1.352 0 2.698-.468 4.038-1.405" stroke="#000" stroke-width="4" stroke-linecap="round"/></svg>
